X: 18015
T: Hugo's
R: jig
M: 6/8
K: Dminor
|:~D3 d2^c|dcB ~G3|A2B AGF|~E3 EFE|
~D3 d2e|fed ~B3|ABA AGF|1 ABA GFE:|2 GFE Dde||
fed b2b|agf ~e3|fag fed|~^c3 Bff|
fed Aaa|aba gab|c'2b agf|gfe dag|
fed b2b|agf ~e3|fag fed|~^c3 AGF|
~D3 d2^c|dcB ~G3|A2B AGF|~E3 GFE||

